svgs/zarchiver.svg

<svg width="25" height="25" viewBox="0 0 25 25" fill="none" xmlns="http://www.w3.org/2000/svg">
<path d="M16.8957 20.6586L12.9879 9.71354C12.9557 9.62448 12.9557 9.52695 12.9879 9.43789L14.9661 4.03834C14.9973 3.96521 15.0492 3.90286 15.1155 3.85903C15.1818 3.81521 15.2596 3.79184 15.3391 3.79184C15.4185 3.79184 15.4963 3.81521 15.5626 3.85903C15.6289 3.90286 15.6808 3.96521 15.712 4.03834L22.3925 20.3667C22.4205 20.4275 22.4323 20.4945 22.4268 20.5611C22.4214 20.6278 22.3988 20.692 22.3613 20.7474C22.3238 20.8028 22.2727 20.8476 22.2128 20.8775C22.153 20.9074 22.0864 20.9213 22.0196 20.918H17.1551C17.0951 20.8971 17.0406 20.8629 16.9957 20.818C16.9508 20.7731 16.9166 20.7186 16.8957 20.6586V20.6586Z" fill="black"/>
<path d="M15.6471 20.918H2.9509C2.88951 20.9164 2.82936 20.9003 2.77539 20.871C2.72141 20.8417 2.67514 20.8 2.64034 20.7494C2.60555 20.6988 2.58323 20.6407 2.57521 20.5798C2.56718 20.5189 2.57368 20.457 2.59417 20.3991L7.26405 7.94609H5.07505C5.00212 7.94629 4.9305 7.92682 4.86771 7.88972C4.80493 7.85262 4.75332 7.79927 4.71832 7.7353L2.67525 3.64916C2.6442 3.58901 2.62937 3.52181 2.63223 3.45418C2.6351 3.38656 2.65555 3.32085 2.69157 3.26354C2.72759 3.20623 2.77793 3.15932 2.83763 3.12741C2.89733 3.09551 2.96431 3.07973 3.03197 3.08164H14.0094C14.0708 3.08323 14.131 3.09934 14.1849 3.12863C14.2389 3.15793 14.2852 3.19958 14.32 3.25019C14.3548 3.3008 14.3771 3.35892 14.3851 3.41981C14.3932 3.4807 14.3867 3.54262 14.3662 3.60051L9.89086 15.5347C9.87037 15.5925 9.86387 15.6545 9.87189 15.7154C9.87992 15.7762 9.90224 15.8344 9.93703 15.885C9.97182 15.9356 10.0181 15.9772 10.0721 16.0065C10.1261 16.0358 10.1862 16.0519 10.2476 16.0535H14.2851C14.3638 16.0556 14.4401 16.0815 14.5038 16.1278C14.5675 16.1741 14.6156 16.2387 14.6418 16.313L16.0201 20.4153C16.0378 20.4736 16.0417 20.5351 16.0313 20.5951C16.0209 20.6551 15.9966 20.7118 15.9604 20.7607C15.9241 20.8096 15.8769 20.8493 15.8225 20.8766C15.7681 20.9039 15.708 20.9181 15.6471 20.918V20.918Z" fill="black"/>
</svg>

<svg xmlns="http://www.w3.org/2000/svg" width="25" height="25" fill="none" viewBox="0 0 25 25"><path fill="#000" d="M16.896 20.659 12.988 9.714a.405.405 0 0 1 0-.276l1.978-5.4a.406.406 0 0 1 .746 0l6.68 16.329a.388.388 0 0 1-.372.551h-4.865a.422.422 0 0 1-.26-.26"/><path fill="#000" d="M15.647 20.918H2.951a.39.39 0 0 1-.357-.519l4.67-12.453H5.075a.405.405 0 0 1-.357-.21L2.675 3.648a.39.39 0 0 1 .357-.567h10.977a.389.389 0 0 1 .357.519L9.891 15.535a.39.39 0 0 0 .357.518h4.037a.39.39 0 0 1 .357.26l1.378 4.102a.39.39 0 0 1-.373.503"/></svg>
